TGraph/shade.svg

<svg xmlns="http://www.w3.org/2000/svg" viewBox="0 0 1200 800" preserveAspectRatio="none" width="1200" height="800">
 <defs>
  <pattern id="pat_3013_16" patternUnits="userSpaceOnUse" width="7" height="7">
   <path d="M0,0L7,7M7,0L0,7" style="stroke: #b3b3b3; stroke-width: 1; fill: none;"></path>
  </pattern>
 </defs>
 <path d="M0,0H1200V800H0Z" style="fill: white;"></path>
 <g>
  <g transform="translate(120,80)">
   <path d="M0,0H960V640H0Z" style="fill: white; stroke: black; stroke-width: 1;"></path>
   <g>
    <path d="M0,0v640M87,0v640M175,0v640M262,0v640M349,0v640M436,0v640M524,0v640M611,0v640M698,0v640M785,0v640M873,0v640M960,0v640" style="stroke: black; stroke-width: 1; stroke-dasharray: 1,2;"></path>
    <path d="M0,640h960M0,533h960M0,427h960M0,320h960M0,213h960M0,107h960M0,0h960" style="stroke: black; stroke-width: 1; stroke-dasharray: 1,2;"></path>
   </g>
   <svg x="0" y="0" overflow="hidden" width="960" height="640" viewBox="0 0 960 640">
    <g>
     <path d="M44,482l43,-50l44,-48l44,-45l43,-43l44,-39l43,-35l44,-31l44,-26l43,-22l44,-17l44,-12l43,-6l44,-1l44,4l43,10l44,14l43,20l44,25l44,29v63l-44,-20l-44,-16l-43,-12l-44,-7l-43,-3h-44l-44,6l-43,9l-44,13l-44,18l-43,21l-44,25l-44,28l-43,31l-44,34l-43,36l-44,39l-44,40l-43,41Z" style="fill: url(#pat_3013_16);"></path>
    </g>
    <g>
     <path d="M44,555l43,-41l44,-40l44,-39l43,-36l44,-34l43,-31l44,-28l44,-25l43,-21l44,-18l44,-13l43,-9l44,-6h44l43,3l44,7l43,12l44,16l44,20" style="stroke: black; stroke-width: 1; fill: none;"></path>
    </g>
    <g>
     <path d="M44,482l43,-50l44,-48l44,-45l43,-43l44,-39l43,-35l44,-31l44,-26l43,-22l44,-17l44,-12l43,-6l44,-1l44,4l43,10l44,14l43,20l44,25l44,29" style="stroke: black; stroke-width: 1; fill: none;"></path>
    </g>
    <g>
     <path d="M43.64,521.25C47.09,517.61,80.23,482.68,87.27,475.41S123.55,438.49,130.91,431.22S166.79,396.37,174.55,389.11S209.94,356.72,218.18,349.51S252.98,319.92,261.82,312.81S295.92,286.3,305.45,279.39S338.76,256.16,349.09,249.56S381.53,229.76,392.73,223.64S424.25,207.31,436.36,201.87S467.01,188.98,480,184.49S509.89,174.96,523.64,171.65S552.98,165.39,567.27,163.5S596.37,160.44,610.91,160.1S640.11,160.25,654.55,161.5S684.17,164.94,698.18,167.69S728.49,174.56,741.82,178.59S772.97,189.02,785.45,194.1S817.51,208.2,829.09,214.07S867.17,235.2,872.73,238.29" style="stroke: black; stroke-width: 4; fill: none;"></path>
     <path d="M40,517v8h8v-8zM83,471v8h8v-8zM127,427v8h8v-8zM171,385v8h8v-8zM214,346v8h8v-8zM258,309v8h8v-8zM301,275v8h8v-8zM345,246v8h8v-8zM389,220v8h8v-8zM432,198v8h8v-8zM476,180v8h8v-8zM520,168v8h8v-8zM563,159v8h8v-8zM607,156v8h8v-8zM651,158v8h8v-8zM694,164v8h8v-8zM738,175v8h8v-8zM781,190v8h8v-8zM825,210v8h8v-8zM869,234v8h8v-8z" style="stroke: blue; fill: blue;"></path>
    </g>
   </svg>
   <g>
    <g transform="translate(0,640)">
     <path d="M0,0h960M0,-24v24m22,-12v12m22,-12v12m21,-12v12m22,-24v24m22,-12v12m22,-12v12m22,-12v12m22,-24v24m21,-12v12m22,-12v12m22,-12v12m22,-24v24m22,-12v12m21,-12v12m22,-12v12m22,-24v24m22,-12v12m22,-12v12m22,-12v12m21,-24v24m22,-12v12m22,-12v12m22,-12v12m22,-24v24m21,-12v12m22,-12v12m22,-12v12m22,-24v24m22,-12v12m22,-12v12m21,-12v12m22,-24v24m22,-12v12m22,-12v12m22,-12v12m21,-24v24m22,-12v12m22,-12v12m22,-12v12m22,-24v24m22,-12v12m21,-12v12m22,-12v12m22,-24v24" style="stroke: black; stroke-width: 1;"></path>
     <g font-family="Arial" font-size="28" space="preserve" fill="black" text-anchor="middle">
      <text dy=".8em" transform="translate(0,6)">
       0
      </text>
      <text dy=".8em" transform="translate(87,6)">
       0.2
      </text>
      <text dy=".8em" transform="translate(175,6)">
       0.4
      </text>
      <text dy=".8em" transform="translate(262,6)">
       0.6
      </text>
      <text dy=".8em" transform="translate(349,6)">
       0.8
      </text>
      <text dy=".8em" transform="translate(436,6)">
       1
      </text>
      <text dy=".8em" transform="translate(524,6)">
       1.2
      </text>
      <text dy=".8em" transform="translate(611,6)">
       1.4
      </text>
      <text dy=".8em" transform="translate(698,6)">
       1.6
      </text>
      <text dy=".8em" transform="translate(785,6)">
       1.8
      </text>
      <text dy=".8em" transform="translate(873,6)">
       2
      </text>
      <text dy=".8em" transform="translate(960,6)">
       2.2
      </text>
     </g>
    </g>
    <g>
     <path d="M0,0v640M36,640h-36m18,-27h-18m18,-26h-18m18,-27h-18m36,-27h-36m18,-26h-18m18,-27h-18m18,-27h-18m36,-26h-36m18,-27h-18m18,-27h-18m18,-26h-18m36,-27h-36m18,-27h-18m18,-26h-18m18,-27h-18m36,-27h-36m18,-26h-18m18,-27h-18m18,-27h-18m36,-26h-36m18,-27h-18m18,-27h-18m18,-26h-18m36,-27h-36" style="stroke: black; stroke-width: 1;"></path>
     <g font-family="Arial" font-size="28" space="preserve" fill="black" text-anchor="end">
      <text dy=".4em" transform="translate(-4,640)">
       0
      </text>
      <text dy=".4em" transform="translate(-4,533)">
       2
      </text>
      <text dy=".4em" transform="translate(-4,427)">
       4
      </text>
      <text dy=".4em" transform="translate(-4,320)">
       6
      </text>
      <text dy=".4em" transform="translate(-4,213)">
       8
      </text>
      <text dy=".4em" transform="translate(-4,107)">
       10
      </text>
      <text dy=".4em" transform="translate(-4)">
       12
      </text>
     </g>
    </g>
   </g>
  </g>
 </g>
</svg>

<svg xmlns="http://www.w3.org/2000/svg" viewBox="0 0 1200 800" preserveAspectRatio="none" width="1200" height="800">
 <defs>
  <pattern id="pat_3013_16" patternUnits="userSpaceOnUse" width="7" height="7">
   <path d="M0,0L7,7M7,0L0,7" style="stroke: #b3b3b3; stroke-width: 1; fill: none;"></path>
  </pattern>
 </defs>
 <path d="M0,0H1200V800H0Z" style="fill: white;"></path>
 <g>
  <g transform="translate(120,80)">
   <path d="M0,0H960V640H0Z" style="fill: white; stroke: black; stroke-width: 1;"></path>
   <g>
    <path d="M0,0v640M87,0v640M175,0v640M262,0v640M349,0v640M436,0v640M524,0v640M611,0v640M698,0v640M785,0v640M873,0v640M960,0v640" style="stroke: black; stroke-width: 1; stroke-dasharray: 1,2;"></path>
    <path d="M0,640h960M0,533h960M0,427h960M0,320h960M0,213h960M0,107h960M0,0h960" style="stroke: black; stroke-width: 1; stroke-dasharray: 1,2;"></path>
   </g>
   <svg x="0" y="0" overflow="hidden" width="960" height="640" viewBox="0 0 960 640">
    <g>
     <path d="M44,482l43,-50l44,-48l44,-45l43,-43l44,-39l43,-35l44,-31l44,-26l43,-22l44,-17l44,-12l43,-6l44,-1l44,4l43,10l44,14l43,20l44,25l44,29v63l-44,-20l-44,-16l-43,-12l-44,-7l-43,-3h-44l-44,6l-43,9l-44,13l-44,18l-43,21l-44,25l-44,28l-43,31l-44,34l-43,36l-44,39l-44,40l-43,41Z" style="fill: url(#pat_3013_16);"></path>
    </g>
    <g>
     <path d="M44,555l43,-41l44,-40l44,-39l43,-36l44,-34l43,-31l44,-28l44,-25l43,-21l44,-18l44,-13l43,-9l44,-6h44l43,3l44,7l43,12l44,16l44,20" style="stroke: black; stroke-width: 1; fill: none;"></path>
    </g>
    <g>
     <path d="M44,482l43,-50l44,-48l44,-45l43,-43l44,-39l43,-35l44,-31l44,-26l43,-22l44,-17l44,-12l43,-6l44,-1l44,4l43,10l44,14l43,20l44,25l44,29" style="stroke: black; stroke-width: 1; fill: none;"></path>
    </g>
    <g>
     <path d="M43.64,521.25C47.09,517.61,80.23,482.68,87.27,475.41S123.55,438.49,130.91,431.22S166.79,396.37,174.55,389.11S209.94,356.72,218.18,349.51S252.98,319.92,261.82,312.81S295.92,286.3,305.45,279.39S338.76,256.16,349.09,249.56S381.53,229.76,392.73,223.64S424.25,207.31,436.36,201.87S467.01,188.98,480,184.49S509.89,174.96,523.64,171.65S552.98,165.39,567.27,163.5S596.37,160.44,610.91,160.1S640.11,160.25,654.55,161.5S684.17,164.94,698.18,167.69S728.49,174.56,741.82,178.59S772.97,189.02,785.45,194.1S817.51,208.2,829.09,214.07S867.17,235.2,872.73,238.29" style="stroke: black; stroke-width: 4; fill: none;"></path>
     <path d="M40,517v8h8v-8zM83,471v8h8v-8zM127,427v8h8v-8zM171,385v8h8v-8zM214,346v8h8v-8zM258,309v8h8v-8zM301,275v8h8v-8zM345,246v8h8v-8zM389,220v8h8v-8zM432,198v8h8v-8zM476,180v8h8v-8zM520,168v8h8v-8zM563,159v8h8v-8zM607,156v8h8v-8zM651,158v8h8v-8zM694,164v8h8v-8zM738,175v8h8v-8zM781,190v8h8v-8zM825,210v8h8v-8zM869,234v8h8v-8z" style="stroke: blue; fill: blue;"></path>
    </g>
   </svg>
   <g>
    <g transform="translate(0,640)">
     <path d="M0,0h960M0,-24V0M22,-12V0M44,-12V0M65,-12V0M87,-24V0M109,-12V0M131,-12V0M153,-12V0M175,-24V0M196,-12V0M218,-12V0M240,-12V0M262,-24V0M284,-12V0M305,-12V0M327,-12V0M349,-24V0M371,-12V0M393,-12V0M415,-12V0M436,-24V0M458,-12V0M480,-12V0M502,-12V0M524,-24V0M545,-12V0M567,-12V0M589,-12V0M611,-24V0M633,-12V0M655,-12V0M676,-12V0M698,-24V0M720,-12V0M742,-12V0M764,-12V0M785,-24V0M807,-12V0M829,-12V0M851,-12V0M873,-24V0M895,-12V0M916,-12V0M938,-12V0M960,-24V0" style="stroke: black; stroke-width: 1;"></path>
     <g font-family="Arial" font-size="28" space="preserve" fill="black" text-anchor="middle">
      <text dy=".8em" transform="translate(0,6)">
       0
      </text>
      <text dy=".8em" transform="translate(87,6)">
       0.2
      </text>
      <text dy=".8em" transform="translate(175,6)">
       0.4
      </text>
      <text dy=".8em" transform="translate(262,6)">
       0.6
      </text>
      <text dy=".8em" transform="translate(349,6)">
       0.8
      </text>
      <text dy=".8em" transform="translate(436,6)">
       1
      </text>
      <text dy=".8em" transform="translate(524,6)">
       1.2
      </text>
      <text dy=".8em" transform="translate(611,6)">
       1.4
      </text>
      <text dy=".8em" transform="translate(698,6)">
       1.6
      </text>
      <text dy=".8em" transform="translate(785,6)">
       1.8
      </text>
      <text dy=".8em" transform="translate(873,6)">
       2
      </text>
      <text dy=".8em" transform="translate(960,6)">
       2.2
      </text>
     </g>
    </g>
    <g>
     <path d="M0,0v640M36,640H0M18,613H0M18,587H0M18,560H0M36,533H0M18,507H0M18,480H0M18,453H0M36,427H0M18,400H0M18,373H0M18,347H0M36,320H0M18,293H0M18,267H0M18,240H0M36,213H0M18,187H0M18,160H0M18,133H0M36,107H0M18,80H0M18,53H0M18,27H0M36,0H0" style="stroke: black; stroke-width: 1;"></path>
     <g font-family="Arial" font-size="28" space="preserve" fill="black" text-anchor="end">
      <text dy=".4em" transform="translate(-4,640)">
       0
      </text>
      <text dy=".4em" transform="translate(-4,533)">
       2
      </text>
      <text dy=".4em" transform="translate(-4,427)">
       4
      </text>
      <text dy=".4em" transform="translate(-4,320)">
       6
      </text>
      <text dy=".4em" transform="translate(-4,213)">
       8
      </text>
      <text dy=".4em" transform="translate(-4,107)">
       10
      </text>
      <text dy=".4em" transform="translate(-4)">
       12
      </text>
     </g>
    </g>
   </g>
  </g>
 </g>
</svg>
